img/printer-icon.svg

<?xml version="1.0" encoding="UTF-8"?>
<svg id="Layer_1" xmlns="http://www.w3.org/2000/svg" version="1.1" viewBox="0 0 122.88 114.81">
  <!-- Generator: Adobe Illustrator 29.7.1, SVG Export Plug-In . SVG Version: 2.1.1 Build 8)  -->
  <path d="M18.46,89.86H7.82c-2.07,0-4.06-.82-5.52-2.29l-.24-.26C.73,85.86,0,83.97,0,82v-46.56C0,33.36.83,31.37,2.3,29.91l.25-.23c1.44-1.32,3.32-2.06,5.27-2.06h12.31c-.09-.49-.13-.98-.13-1.48V8.14c0-2.15.86-4.21,2.39-5.72h0C23.9.89,25.95,0,28.1,0h66.68c4.47,0,8.1,3.64,8.11,8.11v18c0,.5-.05.99-.14,1.48h12.31c2.07,0,4.05.83,5.51,2.29h0c1.47,1.46,2.3,3.45,2.3,5.52v46.6c-.01,4.31-3.51,7.81-7.82,7.82h-10.63v20.31c0,1.23-.49,2.41-1.36,3.28-.12.12-.25.23-.39.34-.82.65-1.84,1.01-2.89,1H23.1c-1.23,0-2.41-.49-3.28-1.36-.12-.12-.24-.25-.34-.39-.65-.82-1.01-1.84-1-2.89v-20.25s-.02,0-.02,0ZM27,27.62h68.91l.19-.17c.35-.35.55-.82.55-1.31V8.14c0-1.03-.84-1.86-1.87-1.87H28.1c-.5,0-.97.2-1.32.55h0c-.35.35-.54.83-.54,1.32v18c0,.49.2.96.55,1.31l.19.17s.02,0,.02,0ZM36.3,99.33c-1.33,0-2.4-1.07-2.4-2.4s1.07-2.4,2.4-2.4h27.34c1.33,0,2.4,1.07,2.4,2.4s-1.07,2.4-2.4,2.4h-27.34ZM36.3,84.77c-1.33,0-2.4-1.07-2.4-2.4s1.07-2.4,2.4-2.4h50.31c1.33,0,2.4,1.07,2.4,2.4s-1.07,2.4-2.4,2.4h-50.31ZM7.07,60.61h108.74v-25.17c0-.2-.08-.4-.22-.54s-.33-.22-.53-.22H7.82c-.17,0-.33.06-.46.16l-.07.07c-.14.14-.22.33-.22.53v25.17ZM115.81,67.68h-13.62c.32.19.61.42.87.69.87.87,1.36,2.05,1.36,3.28v11.14h10.64c.2,0,.39-.08.53-.22s.22-.33.22-.53v-14.36ZM20.69,67.68H7.07v14.32c0,.17.05.33.15.46l.07.07c.14.14.33.22.53.22h10.64v-11.1c0-1.23.49-2.41,1.36-3.28.26-.27.55-.5.87-.69ZM97.36,71.91H25.52v35.83h71.84v-35.83Z"/>
</svg>

<svg id="Layer_1" data-name="Layer 1" xmlns="http://www.w3.org/2000/svg" viewBox="0 0 122.88 114.81"><title>printer</title><path d="M18.46,89.86H7.82A7.8,7.8,0,0,1,2.3,87.57l-.24-.26A7.82,7.82,0,0,1,0,82V35.44a7.81,7.81,0,0,1,2.3-5.53l.25-.23a7.77,7.77,0,0,1,5.27-2.06H20.13A8.07,8.07,0,0,1,20,26.14v-18a8.05,8.05,0,0,1,2.39-5.72h0A8.07,8.07,0,0,1,28.1,0H94.78a8.13,8.13,0,0,1,8.11,8.11v18a8.07,8.07,0,0,1-.14,1.48h12.31a7.81,7.81,0,0,1,5.51,2.29h0a7.8,7.8,0,0,1,2.3,5.52V82a7.84,7.84,0,0,1-7.82,7.82H104.42v20.31a4.63,4.63,0,0,1-1.36,3.28,4.32,4.32,0,0,1-.39.34,4.6,4.6,0,0,1-2.89,1H23.1a4.63,4.63,0,0,1-3.28-1.36,3.06,3.06,0,0,1-.34-.39,4.6,4.6,0,0,1-1-2.89V89.86ZM27,27.62H95.91l.19-.17a1.86,1.86,0,0,0,.55-1.31v-18a1.88,1.88,0,0,0-1.87-1.87H28.1a1.87,1.87,0,0,0-1.32.55h0a1.87,1.87,0,0,0-.54,1.32v18a1.84,1.84,0,0,0,.55,1.31l.19.17Zm9.3,71.71a2.4,2.4,0,0,1,0-4.8H63.64a2.4,2.4,0,0,1,0,4.8Zm0-14.56a2.4,2.4,0,0,1,0-4.8H86.61a2.4,2.4,0,0,1,0,4.8ZM7.07,60.61H115.81V35.44a.76.76,0,0,0-.22-.54.77.77,0,0,0-.53-.22H7.82a.76.76,0,0,0-.46.16l-.07.07a.76.76,0,0,0-.22.53V60.61Zm108.74,7.07H102.19a4.13,4.13,0,0,1,.87.69,4.63,4.63,0,0,1,1.36,3.28V82.79h10.64a.75.75,0,0,0,.53-.22.79.79,0,0,0,.22-.53V67.68Zm-95.12,0H7.07V82a.81.81,0,0,0,.15.46l.07.07a.75.75,0,0,0,.53.22H18.46V71.65a4.63,4.63,0,0,1,1.36-3.28,4.13,4.13,0,0,1,.87-.69Zm76.67,4.23H25.52v35.83H97.36V71.91Z"/></svg>
